arb/images/icons/1.svg

<svg width="96" height="100" viewBox="0 0 96 100" fill="none" xmlns="http://www.w3.org/2000/svg">
<g clip-path="url(#clip0)">
<path d="M56.034 19.1164C57.9032 17.2472 59.0077 14.6984 59.0077 11.8946C59.0077 9.09089 57.9032 6.54204 56.034 4.67288C54.1649 2.80372 51.616 1.69922 48.8123 1.69922C46.0085 1.69922 43.4597 2.80372 41.5905 4.67288C39.7214 6.54204 38.6169 9.09089 38.6169 11.8946C38.6169 12.5743 38.7018 13.339 38.8718 13.9337C39.4665 16.6525 41.4206 18.9465 43.9695 20.1359C57.3085 25.4036 64.2753 34.6644 68.8633 46.3041H27.7418C27.7418 46.3041 27.4019 32.6253 43.4597 25.9983" stroke="#E63946" stroke-width="3" stroke-miterlimit="10" stroke-linecap="round" stroke-linejoin="round"/>
<path d="M69.8828 98.3009V91.0791C69.8828 89.5498 70.5624 88.0205 71.6669 87.001L92.3127 68.5643C93.5021 67.5447 94.0969 66.0154 94.0969 64.4861V41.6314C94.0969 38.8277 91.8029 36.6187 89.0841 36.6187C86.2804 36.6187 84.0714 38.9126 84.0714 41.6314V58.4538L80.5879 60.8328" stroke="#E63946" stroke-width="3" stroke-miterlimit="10" stroke-linecap="round" stroke-linejoin="round"/>
<path d="M55.0145 98.3007V75.361C55.0145 73.8317 55.6092 72.3873 56.7137 71.3678L71.2422 57.604C73.2812 55.6499 76.5098 55.7348 78.4639 57.6889C80.588 59.813 80.503 63.2115 78.294 65.1656L68.3535 74.5963" stroke="#E63946" stroke-width="3" stroke-miterlimit="10" stroke-linecap="round" stroke-linejoin="round"/>
<path d="M26.7222 98.3009V91.0791C26.7222 89.5498 26.0425 88.0205 24.938 87.001L4.20735 68.5643C3.10285 67.5447 2.42316 66.1004 2.42316 64.5711V41.6314C2.42316 38.8277 4.71712 36.6187 7.4359 36.6187C10.2396 36.6187 12.4486 38.9126 12.4486 41.6314V58.4538L15.9321 60.8328" stroke="#E63946" stroke-width="3" stroke-miterlimit="10" stroke-linecap="round" stroke-linejoin="round"/>
<path d="M41.5905 98.3006V75.361C41.5905 73.8317 40.9958 72.3873 39.8913 71.3678L25.2779 57.6889C23.2388 55.7348 20.0102 55.8198 18.0561 57.7739C15.9321 59.8979 16.017 63.2964 18.226 65.2505L28.2515 74.5114" stroke="#E63946" stroke-width="3" stroke-miterlimit="10" stroke-linecap="round" stroke-linejoin="round"/>
</g>
<defs>
<clipPath id="clip0">
<rect width="95.1572" height="100" fill="white" transform="translate(0.723938)"/>
</clipPath>
</defs>
</svg>

<svg width="96" height="100" fill="none" xmlns="http://www.w3.org/2000/svg"><g clip-path="url(#clip0)" stroke="#E63946" stroke-width="3" stroke-miterlimit="10" stroke-linecap="round" stroke-linejoin="round"><path d="M56.034 19.116a10.144 10.144 0 002.974-7.221c0-2.804-1.105-5.353-2.974-7.222a10.144 10.144 0 00-7.222-2.974 10.144 10.144 0 00-7.221 2.974 10.144 10.144 0 00-2.974 7.222c0 .68.085 1.444.255 2.039.595 2.719 2.549 5.013 5.097 6.202 13.34 5.268 20.306 14.528 24.894 26.168H27.742s-.34-13.679 15.718-20.306M69.883 98.3v-7.22c0-1.53.68-3.06 1.784-4.079l20.646-18.437c1.19-1.02 1.784-2.549 1.784-4.078V41.631c0-2.803-2.294-5.012-5.013-5.012-2.804 0-5.013 2.294-5.013 5.012v16.823l-3.483 2.379"/><path d="M55.014 98.3V75.362c0-1.53.595-2.974 1.7-3.993l14.528-13.764c2.04-1.954 5.268-1.87 7.222.085 2.124 2.124 2.039 5.523-.17 7.477l-9.94 9.43M26.722 98.3v-7.22c0-1.53-.68-3.06-1.784-4.079L4.208 68.564c-1.105-1.02-1.785-2.464-1.785-3.993v-22.94c0-2.803 2.294-5.012 5.013-5.012 2.804 0 5.013 2.294 5.013 5.012v16.823l3.483 2.379"/><path d="M41.59 98.3V75.362c0-1.53-.594-2.974-1.699-3.993l-14.613-13.68c-2.04-1.953-5.268-1.868-7.222.086-2.124 2.124-2.039 5.522.17 7.477l10.026 9.26"/></g><defs><clipPath id="clip0"><path fill="#fff" transform="translate(.724)" d="M0 0h95.157v100H0z"/></clipPath></defs></svg>
